svgs/sharp-light/chart-scatter.svg

<svg xmlns="http://www.w3.org/2000/svg" viewBox="0 0 512 512"><!--! Font Awesome Pro 6.6.0 by @fontawesome - https://fontawesome.com License - https://fontawesome.com/license (Commercial License) Copyright 2024 Fonticons, Inc. --><path d="M32 48l0-16L0 32 0 48 0 464l0 16 16 0 480 0 16 0 0-32-16 0L32 448 32 48zm184 88l-48 0 0 48 48 0 0-48zM136 296l0 48 48 0 0-48-48 0zm176-64l-48 0 0 48 48 0 0-48zm48 64l0 48 48 0 0-48-48 0zm80-192l-48 0 0 48 48 0 0-48z"/></svg>

<svg xmlns="http://www.w3.org/2000/svg" viewBox="0 0 512 512"><!--! Font Awesome Pro 6.5.2 by @fontawesome - https://fontawesome.com License - https://fontawesome.com/license (Commercial License) Copyright 2024 Fonticons, Inc. --><path d="M32 48V32H0V48 464v16H16 496h16V448H496 32V48zm184 88H168v48h48V136zM136 296v48h48V296H136zm176-64H264v48h48V232zm48 64v48h48V296H360zm80-192H392v48h48V104z"/></svg>
